style-img/Slide 16_9 - 15.svg

<svg width="1440" height="810" fill="none" xmlns="http://www.w3.org/2000/svg"><path d="M740.491 263.048v5.376h13.152v-5.376h-13.152Zm-2.592-30.672v39.552h5.568V237.8h7.008v33.456h5.856v-38.88h-18.432Zm-14.976 4.512v9.168c0 7.056-.864 16.464-9.648 22.8 1.152.816 3.36 3.12 4.08 4.32 9.648-7.008 11.376-18.864 11.376-27.024v-9.264h-5.808Zm-3.936-2.544v5.328h16.464v-5.328h-16.464Zm-4.992 12.912v5.472h22.656v-5.472h-22.656Zm13.296 6.768-3.504 3.264c2.448 2.832 7.152 8.784 9.408 12.336l3.888-4.848c-1.488-1.776-7.824-9.024-9.792-10.752Zm-8.832-25.776c-.96 5.52-2.784 11.04-5.376 14.496 1.248.768 3.6 2.4 4.608 3.312 2.736-4.032 5.04-10.368 6.288-16.704l-5.52-1.104Zm61.92 29.376v3.84h9.072v-3.84h-9.072ZM777.451 233v4.32h15.36V233h-15.36Zm-1.056 11.472v4.608h30.048v-4.608h-30.048Zm3.648 6.768v3.936h7.296v8.832h-7.296v3.984h11.952V251.24h-11.952Zm-1.728 0v18.576h4.32V251.24h-4.32Zm4.272-22.992v6.96h5.232v-6.96h-5.232Zm-3.696 10.032c.672 2.064 1.104 4.656 1.104 6.384l4.128-.96c-.048-1.728-.624-4.32-1.392-6.24l-3.84.816Zm19.392-5.424c1.824 2.688 3.504 6.384 4.032 8.88l4.608-1.872c-.672-2.496-2.448-6.048-4.32-8.64l-4.32 1.632Zm-11.088 4.416c-.192 1.968-.672 4.8-1.056 6.672l3.888.768c.528-1.68 1.104-4.224 1.824-6.672l-4.656-.768Zm6.48-8.928c.096 28.416.624 44.592 8.64 45.12 1.776.048 3.936-1.584 5.088-8.496-.816-.528-2.736-2.016-3.504-3.168-.192 3.36-.672 5.472-1.344 5.424-3.6-.384-4.32-15.984-3.936-38.88h-4.944Zm7.872 22.752c-2.784 8.736-8.352 15.36-14.4 19.008 1.008.816 2.496 2.304 3.168 3.216 6.336-3.936 12.288-10.896 15.552-19.872l-4.32-2.352Zm-38.016-8.112v4.32h12.144v-4.32h-12.144Zm.24-13.248v4.368h11.856v-4.368h-11.856Zm-.24 19.776v4.368h12.144v-4.368h-12.144Zm-1.92-13.296v4.56h15.168v-4.56h-15.168Zm4.368 19.968v4.512h5.328v5.472h-5.328v4.512h9.84v-14.496h-9.84Zm-2.592 0v16.512h4.416v-16.512h-4.416Zm63.629-21.379V269h-6.75v-26.414l-8.11 2.578v-5.32l14.133-5.039h.727Zm32.765 9.475c2.496 0 4.56-1.92 4.56-4.512 0-2.64-2.064-4.56-4.56-4.56-2.544 0-4.608 1.92-4.608 4.56 0 2.592 2.064 4.512 4.608 4.512Zm0 22.896c2.496 0 4.56-1.92 4.56-4.512 0-2.64-2.064-4.56-4.56-4.56-2.544 0-4.608 1.92-4.608 4.56 0 2.592 2.064 4.512 4.608 4.512Zm32.688-20.88v5.28h11.088v-5.28h-11.088Zm8.88 0v.864c-.096 9.312-.288 12.672-.864 13.44-.384.48-.816.576-1.488.576-.768 0-2.4 0-4.128-.192.864 1.44 1.488 3.696 1.584 5.376 2.256.048 4.32.048 5.616-.144 1.392-.24 2.352-.672 3.312-1.872 1.104-1.488 1.344-5.76 1.536-15.936 0-.672.048-2.112.048-2.112h-5.616Zm14.448-15.024c2.688 1.536 6.096 3.888 7.68 5.568l3.696-3.888c-1.728-1.584-5.28-3.792-7.92-5.184l-3.456 3.504Zm5.664 12.336c-3.312 11.136-9.744 19.824-18.96 24.768 1.2 1.152 3.312 3.552 4.176 4.752 9.504-5.856 16.56-15.6 20.592-28.128l-5.808-1.392Zm-28.656-8.16v5.664h37.008v-5.664h-37.008Zm-3.84 0v14.064c0 6.288-.336 14.688-4.032 20.448 1.344.672 3.936 2.784 4.896 3.936 4.368-6.48 5.184-17.136 5.184-24.336v-14.112h-6.048Zm19.488-7.152c.144 21.888 4.032 44.688 14.496 44.688 4.512 0 6.432-2.16 7.344-11.088-1.536-.576-3.6-1.92-4.896-3.264-.288 6.048-.864 8.496-1.968 8.496-4.848 0-9.264-19.248-8.928-38.832h-6.048Zm41.952 19.296v5.184h19.008v-5.184h-19.008Zm5.136-18v5.04h12.144v-5.04h-12.144Zm8.064 0v2.736h1.056c1.44 7.296 4.896 14.592 10.224 19.008.912-1.44 2.88-3.84 4.176-4.896-4.944-3.408-8.112-9.984-9.312-16.848h-6.144Zm3.6 18v1.008c-.288 12.768-.624 17.328-1.44 18.384-.432.528-.816.672-1.536.672-.768 0-2.352 0-4.08-.192.864 1.536 1.488 3.984 1.584 5.664 2.208.096 4.272.048 5.568-.192 1.488-.24 2.496-.72 3.504-2.112 1.296-1.776 1.68-7.104 2.064-20.88.048-.72.048-2.352.048-2.352h-5.712Zm-11.52 2.592c-.48 8.016-1.776 14.688-9.408 18.72 1.2 1.008 2.736 3.072 3.408 4.368 8.688-5.184 10.992-13.152 11.664-23.088h-5.664Zm-3.696-15.984c-1.248 4.512-4.128 10.224-7.632 13.584 1.104.912 2.88 2.64 3.744 3.792 4.08-3.984 7.392-10.368 9.408-15.984l-5.52-1.392Zm-8.832-5.76c-2.448 6.864-6.624 13.68-10.992 18.048 1.008 1.392 2.544 4.56 3.072 5.952 5.232-5.472 10.224-14.112 13.344-22.32l-5.424-1.68Zm-4.656 13.248v31.584h5.52v-37.008l-.048-.048-5.472 5.472Zm65.619-9.264v5.184h16.17v-5.184h-16.17Zm-6.483 18.144v5.184h22.273v-5.184h-22.273Zm20.353-18.144v.72c-.38 6.864-.86 9.696-1.63 10.464-.48.384-.96.432-1.73.432-.96 0-3.12-.048-5.28-.24.91 1.44 1.58 3.696 1.73 5.28 2.54.096 4.89.048 6.24-.096 1.63-.144 2.83-.576 3.89-1.728 1.29-1.44 1.92-4.944 2.4-12.72.09-.72.14-2.112.14-2.112h-5.76Zm-15.26-4.224c-.96 8.016-3.509 14.688-8.405 18.528 1.392.816 3.936 2.688 4.944 3.6 5.041-4.656 8.061-12.096 9.361-21.36l-5.9-.768Zm15.16 22.368v.816c-3.12 9.648-12.19 14.88-23.853 16.704 1.056 1.296 2.352 3.696 2.88 5.232 12.913-2.736 22.853-8.64 26.973-21.408l-3.84-1.536-1 .192h-1.16Zm-12.33 4.656-5.14 1.776c4.71 8.16 12.34 13.728 22.61 16.272.86-1.584 2.5-3.984 3.79-5.232-9.74-1.872-17.52-6.48-21.26-12.816Zm-21.555-22.56c3.072 1.392 6.96 3.696 8.784 5.472l3.36-4.704c-1.92-1.728-5.952-3.792-9.024-4.992l-3.12 4.224Zm-2.88 13.008c3.12 1.344 7.104 3.6 8.928 5.28l3.264-4.752c-2.016-1.632-6.096-3.696-9.168-4.848l-3.024 4.32Zm1.68 23.28 4.944 3.744c2.736-4.608 5.664-10.128 8.064-15.168l-4.32-3.744c-2.784 5.568-6.24 11.52-8.688 15.168Zm47.565-34.896v5.376h42.82v-5.376h-42.82Zm12.96 17.28v4.8h20.88v-4.8h-20.88Zm-4.27-8.112v30.048h5.71v-25.008h18.58v-5.04h-24.29Zm23.14 0v23.76c0 .672-.29.912-1.06.912-.81 0-3.65.048-6.14-.096.77 1.488 1.53 3.936 1.77 5.52 3.89 0 6.63-.048 8.55-.912 1.97-.912 2.49-2.496 2.49-5.328v-23.856h-5.61Zm-16.95-15.024c-2.4 9.36-7.77 19.68-16.32 25.296 1.16 1.104 2.98 3.168 3.8 4.464 9.36-6.528 15.12-17.568 18.48-28.416l-5.96-1.344Zm-1.92 31.056v4.8h20.88v-4.8h-20.88Zm42-30c-1.53 6.624-4.46 13.2-8.25 17.136 1.53.624 4.32 2.064 5.57 2.928 3.6-4.464 6.81-11.52 8.68-18.912l-6-1.152Zm.87 7.104-1.68 5.664h34.46v-5.664h-32.78Zm-8.31 15.264v5.712h43.88v-5.712h-43.88Zm19.44-23.376v45.072h6.15v-45.072h-6.15Zm28.23 9.552v5.328h15.55V237.8h-15.55Zm6.48-9.552c-1.49 9.552-4.13 22.224-6.19 29.808l4.7 2.496c2.26-8.64 5.04-21.504 6.91-31.728l-5.42-.576Zm-3.65 29.04c4.56 2.976 10.08 7.536 12.53 10.848l3.41-4.608c-2.55-3.264-8.26-7.488-12.82-10.32l-3.12 4.08Zm10.7-19.488v1.056c-.91 15.168-5.23 25.776-13.44 30.048 1.16 1.104 2.69 3.168 3.46 4.56 9.6-5.856 14.26-16.464 15.41-35.232l-3.46-.576-1.01.144h-.96Zm5.19-7.008v5.184h15.69v-5.184h-15.69Zm16.08 13.248-.72 5.184h6.91v-5.184h-6.19Zm4.27 0v1.008c-.48 14.928-1.15 20.784-2.3 22.08-.53.576-1.01.672-1.83.672-1.01 0-3.21 0-5.52-.192.91 1.488 1.59 3.792 1.68 5.376 2.5.144 4.9.144 6.43-.096 1.68-.24 2.84-.72 4.04-2.256 1.63-1.968 2.2-8.16 2.83-24.24.05-.672.09-2.352.09-2.352h-5.42Zm-16.08-11.472c-.1 14.16.05 28.416-6.86 37.008 1.44.864 3.26 2.544 4.17 3.84 7.68-9.744 8.16-25.344 8.35-40.848h-5.66Zm9.98-1.776c-.24 6.48-.96 14.832-1.77 20.064l5.23.384c.72-5.28 1.44-13.728 1.82-20.448h-5.28Zm34.76 25.872h4.94l1.25-16.416.24-7.152h-7.92l.24 7.152 1.25 16.416Zm2.49 12.816c2.4 0 4.23-1.776 4.23-4.272 0-2.496-1.83-4.224-4.23-4.224-2.45 0-4.27 1.728-4.27 4.224 0 2.496 1.78 4.272 4.27 4.272Z" fill="#424242"/></svg>

<svg width="1440" height="810" viewBox="0 0 1440 810" fill="none" xmlns="http://www.w3.org/2000/svg">
<path d="M740.491 263.048V268.424H753.643V263.048H740.491ZM737.899 232.376V271.928H743.467V237.8H750.475V271.256H756.331V232.376H737.899ZM722.923 236.888V246.056C722.923 253.112 722.059 262.52 713.275 268.856C714.427 269.672 716.635 271.976 717.355 273.176C727.003 266.168 728.731 254.312 728.731 246.152V236.888H722.923ZM718.987 234.344V239.672H735.451V234.344H718.987ZM713.995 247.256V252.728H736.651V247.256H713.995ZM727.291 254.024L723.787 257.288C726.235 260.12 730.939 266.072 733.195 269.624L737.083 264.776C735.595 263 729.259 255.752 727.291 254.024ZM718.459 228.248C717.499 233.768 715.675 239.288 713.083 242.744C714.331 243.512 716.683 245.144 717.691 246.056C720.427 242.024 722.731 235.688 723.979 229.352L718.459 228.248ZM780.379 257.624V261.464H789.451V257.624H780.379ZM777.451 233V237.32H792.811V233H777.451ZM776.395 244.472V249.08H806.443V244.472H776.395ZM780.043 251.24V255.176H787.339V264.008H780.043V267.992H791.995V251.24H780.043ZM778.315 251.24V269.816H782.635V251.24H778.315ZM782.587 228.248V235.208H787.819V228.248H782.587ZM778.891 238.28C779.563 240.344 779.995 242.936 779.995 244.664L784.123 243.704C784.075 241.976 783.499 239.384 782.731 237.464L778.891 238.28ZM798.283 232.856C800.107 235.544 801.787 239.24 802.315 241.736L806.923 239.864C806.251 237.368 804.475 233.816 802.603 231.224L798.283 232.856ZM787.195 237.272C787.003 239.24 786.523 242.072 786.139 243.944L790.027 244.712C790.555 243.032 791.131 240.488 791.851 238.04L787.195 237.272ZM793.675 228.344C793.771 256.76 794.299 272.936 802.315 273.464C804.091 273.512 806.251 271.88 807.403 264.968C806.587 264.44 804.667 262.952 803.899 261.8C803.707 265.16 803.227 267.272 802.555 267.224C798.955 266.84 798.235 251.24 798.619 228.344H793.675ZM801.547 251.096C798.763 259.832 793.195 266.456 787.147 270.104C788.155 270.92 789.643 272.408 790.315 273.32C796.651 269.384 802.603 262.424 805.867 253.448L801.547 251.096ZM763.531 242.984V247.304H775.675V242.984H763.531ZM763.771 229.736V234.104H775.627V229.736H763.771ZM763.531 249.512V253.88H775.675V249.512H763.531ZM761.611 236.216V240.776H776.779V236.216H761.611ZM765.979 256.184V260.696H771.307V266.168H765.979V270.68H775.819V256.184H765.979ZM763.387 256.184V272.696H767.803V256.184H763.387ZM827.016 234.805V269H820.266V242.586L812.156 245.164V239.844L826.289 234.805H827.016ZM859.781 244.28C862.277 244.28 864.341 242.36 864.341 239.768C864.341 237.128 862.277 235.208 859.781 235.208C857.237 235.208 855.173 237.128 855.173 239.768C855.173 242.36 857.237 244.28 859.781 244.28ZM859.781 267.176C862.277 267.176 864.341 265.256 864.341 262.664C864.341 260.024 862.277 258.104 859.781 258.104C857.237 258.104 855.173 260.024 855.173 262.664C855.173 265.256 857.237 267.176 859.781 267.176ZM892.469 246.296V251.576H903.557V246.296H892.469ZM901.349 246.296V247.16C901.253 256.472 901.061 259.832 900.485 260.6C900.101 261.08 899.669 261.176 898.997 261.176C898.229 261.176 896.597 261.176 894.869 260.984C895.733 262.424 896.357 264.68 896.453 266.36C898.709 266.408 900.773 266.408 902.069 266.216C903.461 265.976 904.421 265.544 905.381 264.344C906.485 262.856 906.725 258.584 906.917 248.408C906.917 247.736 906.965 246.296 906.965 246.296H901.349ZM915.797 231.272C918.485 232.808 921.893 235.16 923.477 236.84L927.173 232.952C925.445 231.368 921.893 229.16 919.253 227.768L915.797 231.272ZM921.461 243.608C918.149 254.744 911.717 263.432 902.501 268.376C903.701 269.528 905.813 271.928 906.677 273.128C916.181 267.272 923.237 257.528 927.269 245L921.461 243.608ZM892.805 235.448V241.112H929.813V235.448H892.805ZM888.965 235.448V249.512C888.965 255.8 888.629 264.2 884.933 269.96C886.277 270.632 888.869 272.744 889.829 273.896C894.197 267.416 895.013 256.76 895.013 249.56V235.448H888.965ZM908.453 228.296C908.597 250.184 912.485 272.984 922.949 272.984C927.461 272.984 929.381 270.824 930.293 261.896C928.757 261.32 926.693 259.976 925.397 258.632C925.109 264.68 924.533 267.128 923.429 267.128C918.581 267.128 914.165 247.88 914.501 228.296H908.453ZM950.405 247.592V252.776H969.413V247.592H950.405ZM955.541 229.592V234.632H967.685V229.592H955.541ZM963.605 229.592V232.328H964.661C966.101 239.624 969.557 246.92 974.885 251.336C975.797 249.896 977.765 247.496 979.061 246.44C974.117 243.032 970.949 236.456 969.749 229.592H963.605ZM967.205 247.592V248.6C966.917 261.368 966.581 265.928 965.765 266.984C965.333 267.512 964.949 267.656 964.229 267.656C963.461 267.656 961.877 267.656 960.149 267.464C961.013 269 961.637 271.448 961.733 273.128C963.941 273.224 966.005 273.176 967.301 272.936C968.789 272.696 969.797 272.216 970.805 270.824C972.101 269.048 972.485 263.72 972.869 249.944C972.917 249.224 972.917 247.592 972.917 247.592H967.205ZM955.685 250.184C955.205 258.2 953.909 264.872 946.277 268.904C947.477 269.912 949.013 271.976 949.685 273.272C958.373 268.088 960.677 260.12 961.349 250.184H955.685ZM951.989 234.2C950.741 238.712 947.861 244.424 944.357 247.784C945.461 248.696 947.237 250.424 948.101 251.576C952.181 247.592 955.493 241.208 957.509 235.592L951.989 234.2ZM943.157 228.44C940.709 235.304 936.533 242.12 932.165 246.488C933.173 247.88 934.709 251.048 935.237 252.44C940.469 246.968 945.461 238.328 948.581 230.12L943.157 228.44ZM938.501 241.688V273.272H944.021V236.264L943.973 236.216L938.501 241.688ZM1004.12 232.424V237.608H1020.29V232.424H1004.12ZM997.637 250.568V255.752H1019.91V250.568H997.637ZM1017.99 232.424V233.144C1017.61 240.008 1017.13 242.84 1016.36 243.608C1015.88 243.992 1015.4 244.04 1014.63 244.04C1013.67 244.04 1011.51 243.992 1009.35 243.8C1010.26 245.24 1010.93 247.496 1011.08 249.08C1013.62 249.176 1015.97 249.128 1017.32 248.984C1018.95 248.84 1020.15 248.408 1021.21 247.256C1022.5 245.816 1023.13 242.312 1023.61 234.536C1023.7 233.816 1023.75 232.424 1023.75 232.424H1017.99ZM1002.73 228.2C1001.77 236.216 999.221 242.888 994.325 246.728C995.717 247.544 998.261 249.416 999.269 250.328C1004.31 245.672 1007.33 238.232 1008.63 228.968L1002.73 228.2ZM1017.89 250.568V251.384C1014.77 261.032 1005.7 266.264 994.037 268.088C995.093 269.384 996.389 271.784 996.917 273.32C1009.83 270.584 1019.77 264.68 1023.89 251.912L1020.05 250.376L1019.05 250.568H1017.89ZM1005.56 255.224L1000.42 257C1005.13 265.16 1012.76 270.728 1023.03 273.272C1023.89 271.688 1025.53 269.288 1026.82 268.04C1017.08 266.168 1009.3 261.56 1005.56 255.224ZM984.005 232.664C987.077 234.056 990.965 236.36 992.789 238.136L996.149 233.432C994.229 231.704 990.197 229.64 987.125 228.44L984.005 232.664ZM981.125 245.672C984.245 247.016 988.229 249.272 990.053 250.952L993.317 246.2C991.301 244.568 987.221 242.504 984.149 241.352L981.125 245.672ZM982.805 268.952L987.749 272.696C990.485 268.088 993.413 262.568 995.813 257.528L991.493 253.784C988.709 259.352 985.253 265.304 982.805 268.952ZM1030.37 234.056V239.432H1073.19V234.056H1030.37ZM1043.33 251.336V256.136H1064.21V251.336H1043.33ZM1039.06 243.224V273.272H1044.77V248.264H1063.35V243.224H1039.06ZM1062.2 243.224V266.984C1062.2 267.656 1061.91 267.896 1061.14 267.896C1060.33 267.896 1057.49 267.944 1055 267.8C1055.77 269.288 1056.53 271.736 1056.77 273.32C1060.66 273.32 1063.4 273.272 1065.32 272.408C1067.29 271.496 1067.81 269.912 1067.81 267.08V243.224H1062.2ZM1045.25 228.2C1042.85 237.56 1037.48 247.88 1028.93 253.496C1030.09 254.6 1031.91 256.664 1032.73 257.96C1042.09 251.432 1047.85 240.392 1051.21 229.544L1045.25 228.2ZM1043.33 259.256V264.056H1064.21V259.256H1043.33ZM1085.33 229.256C1083.8 235.88 1080.87 242.456 1077.08 246.392C1078.61 247.016 1081.4 248.456 1082.65 249.32C1086.25 244.856 1089.46 237.8 1091.33 230.408L1085.33 229.256ZM1086.2 236.36L1084.52 242.024H1118.98V236.36H1086.2ZM1077.89 251.624V257.336H1121.77V251.624H1077.89ZM1097.33 228.248V273.32H1103.48V228.248H1097.33ZM1125.56 237.8V243.128H1141.11V237.8H1125.56ZM1132.04 228.248C1130.55 237.8 1127.91 250.472 1125.85 258.056L1130.55 260.552C1132.81 251.912 1135.59 239.048 1137.46 228.824L1132.04 228.248ZM1128.39 257.288C1132.95 260.264 1138.47 264.824 1140.92 268.136L1144.33 263.528C1141.78 260.264 1136.07 256.04 1131.51 253.208L1128.39 257.288ZM1139.09 237.8V238.856C1138.18 254.024 1133.86 264.632 1125.65 268.904C1126.81 270.008 1128.34 272.072 1129.11 273.464C1138.71 267.608 1143.37 257 1144.52 238.232L1141.06 237.656L1140.05 237.8H1139.09ZM1144.28 230.792V235.976H1159.97V230.792H1144.28ZM1160.36 244.04L1159.64 249.224H1166.55V244.04H1160.36ZM1164.63 244.04V245.048C1164.15 259.976 1163.48 265.832 1162.33 267.128C1161.8 267.704 1161.32 267.8 1160.5 267.8C1159.49 267.8 1157.29 267.8 1154.98 267.608C1155.89 269.096 1156.57 271.4 1156.66 272.984C1159.16 273.128 1161.56 273.128 1163.09 272.888C1164.77 272.648 1165.93 272.168 1167.13 270.632C1168.76 268.664 1169.33 262.472 1169.96 246.392C1170.01 245.72 1170.05 244.04 1170.05 244.04H1164.63ZM1148.55 232.568C1148.45 246.728 1148.6 260.984 1141.69 269.576C1143.13 270.44 1144.95 272.12 1145.86 273.416C1153.54 263.672 1154.02 248.072 1154.21 232.568H1148.55ZM1158.53 230.792C1158.29 237.272 1157.57 245.624 1156.76 250.856L1161.99 251.24C1162.71 245.96 1163.43 237.512 1163.81 230.792H1158.53ZM1193.29 256.664H1198.23L1199.48 240.248L1199.72 233.096H1191.8L1192.04 240.248L1193.29 256.664ZM1195.78 269.48C1198.18 269.48 1200.01 267.704 1200.01 265.208C1200.01 262.712 1198.18 260.984 1195.78 260.984C1193.33 260.984 1191.51 262.712 1191.51 265.208C1191.51 267.704 1193.29 269.48 1195.78 269.48Z" fill="#424242"/>
</svg>
